32x32/apps/dk.tangramgames.mrrescue.svg

<svg height="32" width="32" xmlns="http://www.w3.org/2000/svg"><path d="m14.252 22.766c-5.077 1.564-8.699 4.531-12.252 7.234h12v-1h4v-2.875l.873-.533-.045-1.29-1.814-.868s-1.055.094-1.575.07c-.48-.39-.616-.53-1.187-.738z" opacity=".2"/><path d="m11.57 20.6h8.405l3.025 3.5h-14z" fill="#f4f4f7"/><path d="m18.828 23.302-1.814-.868s-1.056.093-1.575.069c-.48-.39-.617-.528-1.188-.737-5.077 1.566-8.698 4.531-12.251 7.234h16.116l.006-3.875.751-.533z" fill="#d59f5b"/><path d="m13 24.862 2.377-1.428s1.056.093 1.575.069c.48-.39.617-.528 1.188-.737 5.077 1.566 8.307 4.531 11.86 7.234h-16v-2.616l-1-.532z" opacity=".2"/><path d="m13 23.862 2.377-1.428s1.056.093 1.575.069c.48-.39.617-.528 1.188-.737 5.077 1.566 8.307 4.531 11.86 7.234h-16v-2.616l-1-.532z" fill="#febd6a"/><path d="m11.1 9.3 4.725-1.54 4.375 1.54 2.8 3.5.7 4.482c.061 3.747-4.702 6.493-7.846 6.578-2.596.007-5.197-2.106-6.338-3.542-1.243-1.363-1.123-1.973-1.149-3.724l.633-4.494z" opacity=".1"/><path d="m11.1 8.3 4.725-1.54 4.375 1.54 2.8 3.5.7 4.482c.061 3.747-4.702 6.493-7.846 6.578-2.596.007-5.197-2.106-6.338-3.542-1.243-1.363-1.123-1.973-1.149-3.724l.633-4.494z" fill="#17191e"/><path d="m10 14.815 2.13-1.815h1.077l.793 1.494v2.024l-2.654 1.482-1.346-.714z" opacity=".1"/><path d="m10 13.815 2.13-1.815h1.077l.793 1.494v2.024l-2.654 1.482-1.346-.714z" fill="#bddff5"/><path d="m10.576 23.24a28.7 28.7 0 0 0 -1.699.915l-.84 4.845h1.541zm10.654-.258 2.13 6.018h1.61l-1.754-4.95a24.754 24.754 0 0 0 -1.987-1.068z" fill="#17191e"/><path d="m14.252 21.766c-5.077 1.564-8.699 4.531-12.252 7.234h1.316c3.153-2.408 6.478-4.86 10.936-6.234.531.194.703.345 1.11.677l.015-.01s.39.03.818.051c.429-.021.819-.05.819-.05l.017.007c.405-.33.579-.481 1.11-.675 4.458 1.374 7.493 3.826 10.572 6.234h1.287c-3.553-2.703-6.782-5.669-11.86-7.234-.53.194-.704.344-1.109.675l-.017-.007s-.39.029-.819.05c-.427-.021-.818-.05-.818-.05l-.016.01c-.406-.333-.578-.484-1.109-.678z" fill="#f4f4f7" opacity=".2"/><circle cx="15" cy="25" fill="#ec503a" r="1"/><path d="m9.084 10.861c.861-2.188 3.667-3.847 5.745-5.04l.671-1.821h1.387l.776 1.688c2.083 1.229 4.557 3.144 5.43 5.157.756 1.744 1.635 3.073 1.184 4.912l-.377 1.543c-.4-.481-.645-1.438-.873-2.762-.575-3.854-3.624-4.58-6.727-4.538-3.52.272-5.683 1.186-7.021 4.26-.294.69-.49 1.435-.79 2.532l-.477-.654c-1.182-1.445.503-3.702 1.073-5.277z" opacity=".2"/><path d="m9.084 9.861c.861-2.188 3.667-3.847 5.745-5.04l.671-1.821h1.387l.776 1.688c2.083 1.229 4.557 3.144 5.43 5.157.756 1.744 1.635 3.073 1.184 4.912l-.377 1.543c-.4-.481-.645-1.438-.873-2.762-.576-3.854-3.625-4.58-6.727-4.538-3.52.272-5.683 1.186-7.021 4.26-.294.69-.49 1.435-.79 2.532l-.477-.654c-1.182-1.445.503-3.702 1.073-5.277z" fill="#ed5e4a"/><path d="m14.5 18-1.5 1.395v3.019l1.5 1.586h3l1.5-1.586v-3.02l-1.5-1.394h-1.5zm.589 1.5h1.822l.589.548v1.77l-.646.682h-1.708l-.646-.683v-1.77z" opacity=".1"/><path d="m14.5 17-1.5 1.395v3.019l1.5 1.586h3l1.5-1.586v-3.02l-1.5-1.394h-1.5zm.589 1.5h1.822l.589.548v1.77l-.646.682h-1.708l-.646-.683v-1.77z" fill="#bddff5"/><path d="m22 14.815-2.13-1.815h-1.077l-.793 1.494v2.024l2.654 1.482 1.346-.714z" opacity=".1"/><path d="m22 13.815-2.13-1.815h-1.077l-.793 1.494v2.024l2.654 1.482 1.346-.714z" fill="#bddff5"/><path d="m15.5 3-.672 1.82c-2.078 1.193-4.883 2.853-5.744 5.041-.482 1.332-1.753 3.15-1.422 4.553.21-1.198 1.049-2.52 1.422-3.553.86-2.188 3.666-3.848 5.744-5.04l.672-1.821h1.387l.775 1.688c2.083 1.229 4.557 3.144 5.43 5.158.536 1.236 1.125 2.265 1.267 3.414.196-1.589-.581-2.833-1.267-4.414-.873-2.014-3.347-3.929-5.43-5.159l-.775-1.687z" fill="#f4f4f7" opacity=".1"/></svg>

<svg height="32" width="32" xmlns="http://www.w3.org/2000/svg">
    <path d="M14.252 22.766C9.175 24.33 5.553 27.297 2 30h12v-1h4v-2.875l.873-.533-.045-1.29-1.814-.868s-1.055.094-1.575.07c-.48-.39-.616-.53-1.187-.738z" opacity=".2"/>
    <path d="M11.57 20.6h8.405L23 24.1H9z" fill="#f4f4f7"/>
    <path d="m18.828 23.302-1.814-.868s-1.056.093-1.575.069c-.48-.39-.617-.528-1.188-.737C9.174 23.332 5.553 26.297 2 29h16.116l.006-3.875.751-.533z" fill="#d59f5b"/>
    <path d="m13 24.862 2.377-1.428s1.056.093 1.575.069c.48-.39.617-.528 1.188-.737C23.217 24.332 26.447 27.297 30 30H14v-2.616l-1-.532z" opacity=".2"/>
    <path d="m13 23.862 2.377-1.428s1.056.093 1.575.069c.48-.39.617-.528 1.188-.737C23.217 23.332 26.447 26.297 30 29H14v-2.616l-1-.532z" fill="#febd6a"/>
    <path d="m11.1 9.3 4.725-1.54L20.2 9.3l2.8 3.5.7 4.482c.061 3.747-4.702 6.493-7.846 6.578-2.596.007-5.197-2.106-6.338-3.542-1.243-1.363-1.123-1.973-1.149-3.724L9 12.1z" opacity=".1"/>
    <path d="m11.1 8.3 4.725-1.54L20.2 8.3l2.8 3.5.7 4.482c.061 3.747-4.702 6.493-7.846 6.578-2.596.007-5.197-2.106-6.338-3.542-1.243-1.363-1.123-1.973-1.149-3.724L9 11.1z" fill="#17191e"/>
    <path d="M10 14.815 12.13 13h1.077L14 14.494v2.024L11.346 18 10 17.286z" opacity=".1"/>
    <path d="M10 13.815 12.13 12h1.077L14 13.494v2.024L11.346 17 10 16.286z" fill="#bddff5"/>
    <path d="M10.576 23.24a28.7 28.7 0 0 0-1.699.915L8.037 29h1.541zm10.654-.258L23.36 29h1.61l-1.754-4.95a24.754 24.754 0 0 0-1.987-1.068z" fill="#17191e"/>
    <path d="M14.252 21.766C9.175 23.33 5.553 26.297 2 29h1.316c3.153-2.408 6.478-4.86 10.936-6.234.531.194.703.345 1.11.677l.015-.01s.39.03.818.051c.429-.021.819-.05.819-.05l.017.007c.405-.33.579-.481 1.11-.675 4.458 1.374 7.493 3.826 10.572 6.234H30c-3.553-2.703-6.782-5.669-11.86-7.234-.53.194-.704.344-1.109.675l-.017-.007s-.39.029-.819.05c-.427-.021-.818-.05-.818-.05l-.016.01c-.406-.333-.578-.484-1.109-.678z" fill="#f4f4f7" opacity=".2"/>
    <circle cx="15" cy="25" fill="#ec503a" r="1"/>
    <path d="M9.084 10.861c.861-2.188 3.667-3.847 5.745-5.04L15.5 4h1.387l.776 1.688c2.083 1.229 4.557 3.144 5.43 5.157.756 1.744 1.635 3.073 1.184 4.912L23.9 17.3c-.4-.481-.645-1.438-.873-2.762-.575-3.854-3.624-4.58-6.727-4.538-3.52.272-5.683 1.186-7.021 4.26-.294.69-.49 1.435-.79 2.532l-.477-.654c-1.182-1.445.503-3.702 1.073-5.277z" opacity=".2"/>
    <path d="M9.084 9.861c.861-2.188 3.667-3.847 5.745-5.04L15.5 3h1.387l.776 1.688c2.083 1.229 4.557 3.144 5.43 5.157.756 1.744 1.635 3.073 1.184 4.912L23.9 16.3c-.4-.481-.645-1.438-.873-2.762C22.451 9.684 19.402 8.958 16.3 9c-3.52.272-5.683 1.186-7.021 4.26-.294.69-.49 1.435-.79 2.532l-.477-.654c-1.182-1.445.503-3.702 1.073-5.277z" fill="#ed5e4a"/>
    <path d="M14.5 18 13 19.395v3.019L14.5 24h3l1.5-1.586v-3.02L17.5 18H16zm.589 1.5h1.822l.589.548v1.77l-.646.682h-1.708l-.646-.683v-1.77z" opacity=".1"/>
    <path d="M14.5 17 13 18.395v3.019L14.5 23h3l1.5-1.586v-3.02L17.5 17H16zm.589 1.5h1.822l.589.548v1.77l-.646.682h-1.708l-.646-.683v-1.77z" fill="#bddff5"/>
    <path d="M22 14.815 19.87 13h-1.077L18 14.494v2.024L20.654 18 22 17.286z" opacity=".1"/>
    <path d="M22 13.815 19.87 12h-1.077L18 13.494v2.024L20.654 17 22 16.286z" fill="#bddff5"/>
    <path d="m15.5 3-.672 1.82C12.75 6.013 9.945 7.673 9.084 9.861c-.482 1.332-1.753 3.15-1.422 4.553.21-1.198 1.049-2.52 1.422-3.553.86-2.188 3.666-3.848 5.744-5.04L15.5 4h1.387l.775 1.688c2.083 1.229 4.557 3.144 5.43 5.158.536 1.236 1.125 2.265 1.267 3.414.196-1.589-.581-2.833-1.267-4.414-.873-2.014-3.347-3.929-5.43-5.159L16.887 3z" fill="#f4f4f7" opacity=".1"/>
</svg>
